X:1
T:Art's
C:Mike Mahar
Q:1/4=140
L:1/8
M:C
W:Created with TablEdit http://www.tabledit.com/
Z: Contributed 2015-05-30 13:58:22 by Mike Mahar Maharguitar@comcast.net
K:C
|: "Am"E2A2 A2B2 | c2cd cBA2 | "G"B2Bc BAG2 | "Am"AGAB AGE2 |
"Am"E2A2 A2B2 | c2cd cBA2 | "Em"e2d2 cdB2 | "Am"A3B A4 :|
|: "C"c2cc c2d2 | "Am"edef edc2 | "G"dcde dcB2 | "Am"cBcd cBA2 |
  "C"c2cc c2d2 | "Am"edef edc2 | "Em"e2d2 cdB2 | "Am"A3B A4 :|

